img/query-logo-full.svg

<?xml version="1.0" encoding="UTF-8"?>
<svg width="136px" height="37px" viewBox="0 0 136 37" version="1.1" xmlns="http://www.w3.org/2000/svg" xmlns:xlink="http://www.w3.org/1999/xlink">
    <!-- Generator: Sketch 43.2 (39069) - http://www.bohemiancoding.com/sketch -->
    <title>query-logo copy 4</title>
    <desc>Created with Sketch.</desc>
    <defs></defs>
    <g id="Page-1" stroke="none" stroke-width="1" fill="none" fill-rule="evenodd">
        <g id="query-logo-copy-4">
            <path d="M65.7312162,18.6175138 C65.7312162,22.2407908 64.5100003,25.0061889 62.541925,26.8127811 L65.5899185,30.5672632 L61.0683917,30.5672632 L59.4636534,28.6395587 C58.3534571,29.0331737 57.1423339,29.2350276 55.8605618,29.2350276 C50.2893948,29.2350276 46,25.4199894 46,18.6175138 C46,11.7847601 50.2893948,8 55.8605618,8 C61.4115433,8 65.7312162,11.7847601 65.7312162,18.6175138 Z M54.1246184,21.5242096 L58.1616959,21.5242096 L59.4333753,23.1491333 C60.2105128,22.0994931 60.6243132,20.5754964 60.6243132,18.6175138 C60.6243132,14.5703436 58.8479991,12.3802291 55.8605618,12.3802291 C52.8832171,12.3802291 51.0968103,14.5703436 51.0968103,18.6175138 C51.0968103,22.664684 52.8832171,24.8547985 55.8605618,24.8547985 C56.1128791,24.8547985 56.3651965,24.8346131 56.6074211,24.8043351 L54.1246184,21.5242096 Z M78.670071,22.2609762 C78.670071,24.0675684 77.5195039,25.0768378 76.0560633,25.0768378 C74.5421593,25.0768378 73.6136314,24.047383 73.6035387,22.3619032 L73.6035387,13.4500546 L68.6682115,13.4500546 L68.6682115,23.3308018 C68.6783042,26.8329665 70.8078626,29.154286 73.9971538,29.154286 C76.3184734,29.154286 78.044324,27.9633482 78.7306272,26.0659218 L78.8921103,26.0659218 L78.8921103,28.9524322 L83.5953055,28.9524322 L83.5953055,13.4500546 L78.670071,13.4500546 L78.670071,22.2609762 Z M93.9807046,29.2451203 C89.1059335,29.2451203 86.1386816,26.2274049 86.1386816,21.2617996 C86.1386816,16.4576773 89.1463043,13.2482007 93.8293142,13.2482007 C98.2297287,13.2482007 101.338278,16.0539696 101.338278,21.1608726 L101.338278,22.3921813 L91.00336,22.3921813 L91.00336,22.5233863 C91.00336,24.4208127 92.1741124,25.6823994 94.0715388,25.6823994 C95.3634036,25.6823994 96.372673,25.1273012 96.7561954,24.0978465 L101.287815,24.2290515 C100.722624,27.277045 98.0480602,29.2451203 93.9807046,29.2451203 Z M91.00336,19.5258562 L96.7461027,19.5258562 C96.7259173,17.9413033 95.5551648,16.8109216 93.9302411,16.8109216 C92.2952247,16.8109216 91.0740088,17.9816741 91.00336,19.5258562 Z M103.871561,28.9524322 L108.806888,28.9524322 L108.806888,20.5351256 C108.806888,18.6881627 110.118938,17.4467613 111.88516,17.4467613 C112.470536,17.4467613 113.3486,17.5476883 113.822957,17.7091714 L113.822957,13.4197765 C113.409156,13.3087569 112.894429,13.238108 112.440258,13.238108 C110.744685,13.238108 109.392264,14.227192 108.827073,16.2760089 L108.66559,16.2760089 L108.66559,13.4500546 L103.871561,13.4500546 L103.871561,28.9524322 Z M119.343672,34.7456384 C122.8963,34.7456384 124.662522,32.9491389 125.520401,30.4360581 L131.36407,13.4601473 L126.166333,13.4500546 L123.26973,24.5116469 L123.108247,24.5116469 L120.252015,13.4500546 L115.084555,13.4500546 L120.595166,29.517623 L120.403405,29.9818869 C119.868492,31.0920832 118.859223,31.1425467 117.405875,30.6681901 L116.315864,34.2510964 C117.062723,34.5437845 118.162827,34.7456384 119.343672,34.7456384 Z" id="Query" fill="#ED4A38"></path>
            <g id="Group" transform="translate(2.000000, 1.000000)">
                <circle id="Oval-2" fill="#ED4A38" cx="17.325" cy="17.325" r="17.325"></circle>
                <g id="feather(1)" transform="translate(9.000000, 8.000000)" stroke="#FFFFFF" stroke-width="1.67351399" stroke-linecap="round" stroke-linejoin="round">
                    <path d="M15.162,9.009 C17.110823,7.01141435 17.110823,3.77268811 15.162,1.77510246 C13.213177,-0.222483188 10.0535105,-0.222483188 8.1046875,1.77510246 L2.49375,7.52643443 L2.49375,14.7688525 L9.559375,14.7688525 L15.162,9.009 Z" id="Shape"></path>
                    <path d="M11.6375,5.39631148 L0,17.325" id="Shape"></path>
                    <path d="M12.884375,11.3606557 L5.81875,11.3606557" id="Shape"></path>
                </g>
            </g>
        </g>
    </g>
</svg>

<svg width="136" height="37" xmlns="http://www.w3.org/2000/svg"><g fill="none" fill-rule="evenodd"><path d="M65.731 18.618c0 3.623-1.221 6.388-3.19 8.195l3.049 3.754h-4.522l-1.604-1.927c-1.11.393-2.322.595-3.603.595-5.572 0-9.861-3.815-9.861-10.617C46 11.785 50.29 8 55.86 8c5.552 0 9.871 3.785 9.871 10.618zm-11.606 2.906h4.037l1.271 1.625c.778-1.05 1.191-2.574 1.191-4.531 0-4.048-1.776-6.238-4.763-6.238-2.978 0-4.764 2.19-4.764 6.238 0 4.047 1.786 6.237 4.764 6.237.252 0 .504-.02.746-.05l-2.482-3.28zm24.545.737c0 1.807-1.15 2.816-2.614 2.816-1.514 0-2.442-1.03-2.452-2.715V13.45h-4.936v9.88c.01 3.503 2.14 5.824 5.33 5.824 2.32 0 4.046-1.19 4.733-3.088h.161v2.886h4.703V13.45H78.67v8.811zm15.31 6.984c-4.874 0-7.841-3.018-7.841-7.983 0-4.804 3.007-8.014 7.69-8.014 4.4 0 7.51 2.806 7.51 7.913v1.231H91.002v.131c0 1.898 1.171 3.16 3.069 3.16 1.291 0 2.3-.556 2.684-1.585l4.532.131c-.565 3.048-3.24 5.016-7.307 5.016zm-2.977-9.72h5.743c-.02-1.584-1.19-2.714-2.816-2.714-1.635 0-2.856 1.17-2.927 2.715zm12.869 9.427h4.935v-8.417c0-1.847 1.312-3.088 3.078-3.088.586 0 1.464.1 1.938.262v-4.29a5.642 5.642 0 0 0-1.383-.18c-1.695 0-3.048.988-3.613 3.037h-.161V13.45h-4.794v15.502zm15.472 5.794c3.552 0 5.319-1.797 6.176-4.31l5.844-16.976-5.198-.01-2.896 11.062h-.162l-2.856-11.062h-5.167l5.51 16.068-.192.464c-.535 1.11-1.544 1.16-2.997.686l-1.09 3.583c.747.293 1.847.495 3.028.495z" fill="#ED4A38"/><g transform="translate(2 1)"><circle fill="#ED4A38" cx="17.325" cy="17.325" r="17.325"/><g transform="translate(9 8)" stroke="#FFF" stroke-width="1.674" stroke-linecap="round" stroke-linejoin="round"><path d="M15.162 9.009c1.949-1.998 1.949-5.236 0-7.234a4.905 4.905 0 0 0-7.057 0L2.494 7.526v7.243h7.065l5.603-5.76zm-3.525-3.613L0 17.325m12.884-5.964H5.82"/></g></g></g></svg>
